src/assets/ContainerBg.svg

<svg xmlns="http://www.w3.org/2000/svg" viewBox="0 -0.5 183 118" shape-rendering="crispEdges">
<!-- border -->
<!-- outer -->
  <path stroke="#30485a" d="M1 0h174M0 1h1M0 2h1M0 3h1M0 4h1M0 5h1M0 6h1M0 7h1M0 8h1m181 0h1M0 9h1m181 0h1M0 10h1m181 0h1M0 11h1m181 0h1M0 12h1m181 0h1M0 13h1m181 0h1M0 14h1m181 0h1M0 15h1m181 0h1M0 16h1m181 0h1M0 17h1m181 0h1M0 18h1m181 0h1M0 19h1m181 0h1M0 20h1m181 0h1M0 21h1m181 0h1M0 22h1m181 0h1M0 23h1m181 0h1M0 24h1m181 0h1M0 25h1m181 0h1M0 26h1m181 0h1M0 27h1m181 0h1M0 28h1m181 0h1M0 29h1m181 0h1M0 30h1m181 0h1M0 31h1m181 0h1M0 32h1m181 0h1M0 33h1m181 0h1M0 34h1m181 0h1M0 35h1m181 0h1M0 36h1m181 0h1M0 37h1m181 0h1M0 38h1m181 0h1M0 39h1m181 0h1M0 40h1m181 0h1M0 41h1m181 0h1M0 42h1m181 0h1M0 43h1m181 0h1M0 44h1m181 0h1M0 45h1m181 0h1M0 46h1m181 0h1M0 47h1m181 0h1M0 48h1m181 0h1M0 49h1m181 0h1M0 50h1m181 0h1M0 51h1m181 0h1M0 52h1m181 0h1M0 53h1m181 0h1M0 54h1m181 0h1M0 55h1m181 0h1M0 56h1m181 0h1M0 57h1m181 0h1M0 58h1m181 0h1M0 59h1m181 0h1M0 60h1m181 0h1M0 61h1m181 0h1M0 62h1m181 0h1M0 63h1m181 0h1M0 64h1m181 0h1M0 65h1m181 0h1M0 66h1m181 0h1M0 67h1m181 0h1M0 68h1m181 0h1M0 69h1m181 0h1M0 70h1m181 0h1M0 71h1m181 0h1M0 72h1m181 0h1M0 73h1m181 0h1M0 74h1m181 0h1M0 75h1m181 0h1M0 76h1m181 0h1M0 77h1m181 0h1M0 78h1m181 0h1M0 79h1m181 0h1M0 80h1m181 0h1M0 81h1m181 0h1M0 82h1m181 0h1M0 83h1m181 0h1M0 84h1m181 0h1M0 85h1m181 0h1M0 86h1m181 0h1M0 87h1m181 0h1M0 88h1m181 0h1M0 89h1m181 0h1M0 90h1m181 0h1M0 91h1m181 0h1M0 92h1m181 0h1M0 93h1m181 0h1M0 94h1m181 0h1M0 95h1m181 0h1M0 96h1m181 0h1M0 97h1m181 0h1M0 98h1m181 0h1M0 99h1m181 0h1M0 100h1m181 0h1M0 101h1m181 0h1M0 102h1m181 0h1M0 103h1m181 0h1M0 104h1m181 0h1M0 105h1m181 0h1M0 106h1m181 0h1M0 107h1m181 0h1M0 108h1m181 0h1M0 109h1m181 0h1M0 110h1m181 0h1M0 111h1m181 0h1M0 112h1m181 0h1M0 113h1m181 0h1M0 114h1m181 0h1M0 115h1m181 0h1M0 116h1m181 0h1M1 117h181"/>


<!-- middle -->
  <path stroke="#4f7592" d="M1 1h173M1 3h1M1 4h1M1 5h1M1 6h1M1 7h1M1 8h1M1 9h1m179 0h1M1 10h1m179 0h1M1 11h1m179 0h1M1 12h1m179 0h1M1 13h1m179 0h1M1 14h1m179 0h1M1 15h1m179 0h1M1 16h1m179 0h1M1 17h1m179 0h1M1 18h1m179 0h1M1 19h1m179 0h1M1 20h1m179 0h1M1 21h1m179 0h1M1 22h1m179 0h1M1 23h1m179 0h1M1 24h1m179 0h1M1 25h1m179 0h1M1 26h1m179 0h1M1 27h1m179 0h1M1 28h1m179 0h1M1 29h1m179 0h1M1 30h1m179 0h1M1 31h1m179 0h1M1 32h1m179 0h1M1 33h1m179 0h1M1 34h1m179 0h1M1 35h1m179 0h1M1 36h1m179 0h1M1 37h1m179 0h1M1 38h1m179 0h1M1 39h1m179 0h1M1 40h1m179 0h1M1 41h1m179 0h1M1 42h1m179 0h1M1 43h1m179 0h1M1 44h1m179 0h1M1 45h1m179 0h1M1 46h1m179 0h1M1 47h1m179 0h1M1 48h1m179 0h1M1 49h1m179 0h1M1 50h1m179 0h1M1 51h1m179 0h1M1 52h1m179 0h1M1 53h1m179 0h1M1 54h1m179 0h1M1 55h1m179 0h1M1 56h1m179 0h1M1 57h1m179 0h1M1 58h1m179 0h1M1 59h1m179 0h1M1 60h1m179 0h1M1 61h1m179 0h1M1 62h1m179 0h1M1 63h1m179 0h1M1 64h1m179 0h1M1 65h1m179 0h1M1 66h1m179 0h1M1 67h1m179 0h1M1 68h1m179 0h1M1 69h1m179 0h1M1 70h1m179 0h1M1 71h1m179 0h1M1 72h1m179 0h1M1 73h1m179 0h1M1 74h1m179 0h1M1 75h1m179 0h1M1 76h1m179 0h1M1 77h1m179 0h1M1 78h1m179 0h1M1 79h1m179 0h1M1 80h1m179 0h1M1 81h1m179 0h1M1 82h1m179 0h1M1 83h1m179 0h1M1 84h1m179 0h1M1 85h1m179 0h1M1 86h1m179 0h1M1 87h1m179 0h1M1 88h1m179 0h1M1 89h1m179 0h1M1 90h1m179 0h1M1 91h1m179 0h1M1 92h1m179 0h1M1 93h1m179 0h1M1 94h1m179 0h1M1 95h1m179 0h1M1 96h1m179 0h1M1 97h1m179 0h1M1 98h1m179 0h1M1 99h1m179 0h1M1 100h1m179 0h1M1 101h1m179 0h1M1 102h1m179 0h1M1 103h1m179 0h1M1 104h1m179 0h1M1 105h1m179 0h1M1 106h1m179 0h1M1 107h1m179 0h1M1 108h1m179 0h1M1 109h1m179 0h1M1 110h1m179 0h1M1 111h1m179 0h1M1 112h1m179 0h1M1 113h1m179 0h1M1 114h1m179 0h1M1 116h181"/>
  
 
<!-- inner -->
  <path stroke="#405f77" d="M1 2h173M2 3h1M2 4h1M2 5h1M2 6h1M2 7h1M2 8h1M2 9h1m177 0h1M2 10h1m177 0h1M2 11h1m177 0h1M2 12h1m177 0h1M2 13h1m177 0h1M2 14h1m177 0h1M2 15h1m177 0h1M2 16h1m177 0h1M2 17h1m177 0h1M2 18h1m177 0h1M2 19h1m177 0h1M2 20h1m177 0h1M2 21h1m177 0h1M2 22h1m177 0h1M2 23h1m177 0h1M2 24h1m177 0h1M2 25h1m177 0h1M2 26h1m177 0h1M2 27h1m177 0h1M2 28h1m177 0h1M2 29h1m177 0h1M2 30h1m177 0h1M2 31h1m177 0h1M2 32h1m177 0h1M2 33h1m177 0h1M2 34h1m177 0h1M2 35h1m177 0h1M2 36h1m177 0h1M2 37h1m177 0h1M2 38h1m177 0h1M2 39h1m177 0h1M2 40h1m177 0h1M2 41h1m177 0h1M2 42h1m177 0h1M2 43h1m177 0h1M2 44h1m177 0h1M2 45h1m177 0h1M2 46h1m177 0h1M2 47h1m177 0h1M2 48h1m177 0h1M2 49h1m177 0h1M2 50h1m177 0h1M2 51h1m177 0h1M2 52h1m177 0h1M2 53h1m177 0h1M2 54h1m177 0h1M2 55h1m177 0h1M2 56h1m177 0h1M2 57h1m177 0h1M2 58h1m177 0h1M2 59h1m177 0h1M2 60h1m177 0h1M2 61h1m177 0h1M2 62h1m177 0h1M2 63h1m177 0h1M2 64h1m177 0h1M2 65h1m177 0h1M2 66h1m177 0h1M2 67h1m177 0h1M2 68h1m177 0h1M2 69h1m177 0h1M2 70h1m177 0h1M2 71h1m177 0h1M2 72h1m177 0h1M2 73h1m177 0h1M2 74h1m177 0h1M2 75h1m177 0h1M2 76h1m177 0h1M2 77h1m177 0h1M2 78h1m177 0h1M2 79h1m177 0h1M2 80h1m177 0h1M2 81h1m177 0h1M2 82h1m177 0h1M2 83h1m177 0h1M2 84h1m177 0h1M2 85h1m177 0h1M2 86h1m177 0h1M2 87h1m177 0h1M2 88h1m177 0h1M2 89h1m177 0h1M2 90h1m177 0h1M2 91h1m177 0h1M2 92h1m177 0h1M2 93h1m177 0h1M2 94h1m177 0h1M2 95h1m177 0h1M2 96h1m177 0h1M2 97h1m177 0h1M2 98h1m177 0h1M2 99h1m177 0h1M2 100h1m177 0h1M2 101h1m177 0h1M2 102h1m177 0h1M2 103h1m177 0h1M2 104h1m177 0h1M2 105h1m177 0h1M2 106h1m177 0h1M2 107h1m177 0h1M2 108h1m177 0h1M2 109h1m177 0h1M2 110h1m177 0h1M2 111h1m177 0h1M2 112h1m177 0h1M2 113h1m177 0h1M2 114h1m177 0h1M1 115h181"/>

<!-- x -->
<!-- x black -->
 <path stroke="#000" d="M176 2h1m3 0h1m-4 1h1m1 0h1m-2 1h1m-2 1h1m1 0h1m-4 1h1m3 0h1"/>
<!-- button outline -->
 <path stroke="#383838" d="M175 0h7m-8 1h1m7 0h1m-9 1h1m7 0h1m-9 1h1m7 0h1m-9 1h1m7 0h1m-9 1h1m7 0h1m-9 1h1m7 0h1m-9 1h1m7 0h1m-8 1h7"/>
<!-- x main fill -->
 <path stroke="#9584ae" d="M175 1h3m-3 1h1m1 0h3m-5 1h2m1 0h1m1 0h1m-5 1h1m2 0h2m-5 1h1m3 0h2m-5 1h3m1 0h1m-2 1h2"/>
<!-- x shadow -->
  <path stroke="#7f6b9e" d="M175 4h1m1 0h1m-3 1h1m2 0h1m-4 1h1m-1 1h5"/>
<!-- x highlight -->
    <path stroke="#aa9cbf" d="M178 1h4m-1 1h1m-1 1h1m-1 1h1"/>
</svg>

<svg xmlns="http://www.w3.org/2000/svg" viewBox="0 -0.5 183 118" shape-rendering="crispEdges" preserveAspectRatio="none">
<metadata> 84a5de    Made with Pixels to Svg https://codepen.io/shshaw/pen/XbxvNj
</metadata>
<!-- border -->
<!-- outer -->
<path stroke="#30485a" d="M1 0h174M0 1h1M0 2h1M0 3h1M0 4h1M0 5h1M0 6h1M0 7h1M0 8h1M182 8h1M0 9h1M182 9h1M0 10h1M182 10h1M0 11h1M182 11h1M0 12h1M182 12h1M0 13h1M182 13h1M0 14h1M182 14h1M0 15h1M182 15h1M0 16h1M182 16h1M0 17h1M182 17h1M0 18h1M182 18h1M0 19h1M182 19h1M0 20h1M182 20h1M0 21h1M182 21h1M0 22h1M182 22h1M0 23h1M182 23h1M0 24h1M182 24h1M0 25h1M182 25h1M0 26h1M182 26h1M0 27h1M182 27h1M0 28h1M182 28h1M0 29h1M182 29h1M0 30h1M182 30h1M0 31h1M182 31h1M0 32h1M182 32h1M0 33h1M182 33h1M0 34h1M182 34h1M0 35h1M182 35h1M0 36h1M182 36h1M0 37h1M182 37h1M0 38h1M182 38h1M0 39h1M182 39h1M0 40h1M182 40h1M0 41h1M182 41h1M0 42h1M182 42h1M0 43h1M182 43h1M0 44h1M182 44h1M0 45h1M182 45h1M0 46h1M182 46h1M0 47h1M182 47h1M0 48h1M182 48h1M0 49h1M182 49h1M0 50h1M182 50h1M0 51h1M182 51h1M0 52h1M182 52h1M0 53h1M182 53h1M0 54h1M182 54h1M0 55h1M182 55h1M0 56h1M182 56h1M0 57h1M182 57h1M0 58h1M182 58h1M0 59h1M182 59h1M0 60h1M182 60h1M0 61h1M182 61h1M0 62h1M182 62h1M0 63h1M182 63h1M0 64h1M182 64h1M0 65h1M182 65h1M0 66h1M182 66h1M0 67h1M182 67h1M0 68h1M182 68h1M0 69h1M182 69h1M0 70h1M182 70h1M0 71h1M182 71h1M0 72h1M182 72h1M0 73h1M182 73h1M0 74h1M182 74h1M0 75h1M182 75h1M0 76h1M182 76h1M0 77h1M182 77h1M0 78h1M182 78h1M0 79h1M182 79h1M0 80h1M182 80h1M0 81h1M182 81h1M0 82h1M182 82h1M0 83h1M182 83h1M0 84h1M182 84h1M0 85h1M182 85h1M0 86h1M182 86h1M0 87h1M182 87h1M0 88h1M182 88h1M0 89h1M182 89h1M0 90h1M182 90h1M0 91h1M182 91h1M0 92h1M182 92h1M0 93h1M182 93h1M0 94h1M182 94h1M0 95h1M182 95h1M0 96h1M182 96h1M0 97h1M182 97h1M0 98h1M182 98h1M0 99h1M182 99h1M0 100h1M182 100h1M0 101h1M182 101h1M0 102h1M182 102h1M0 103h1M182 103h1M0 104h1M182 104h1M0 105h1M182 105h1M0 106h1M182 106h1M0 107h1M182 107h1M0 108h1M182 108h1M0 109h1M182 109h1M0 110h1M182 110h1M0 111h1M182 111h1M0 112h1M182 112h1M0 113h1M182 113h1M0 114h1M182 114h1M0 115h1M182 115h1M0 116h1M182 116h1M1 117h181" />
<!-- middle -->
<path stroke="#4f7592" d="M1 1h173M1 3h1M1 4h1M1 5h1M1 6h1M1 7h1M1 8h1M1 9h1M181 9h1M1 10h1M181 10h1M1 11h1M181 11h1M1 12h1M181 12h1M1 13h1M181 13h1M1 14h1M181 14h1M1 15h1M181 15h1M1 16h1M181 16h1M1 17h1M181 17h1M1 18h1M181 18h1M1 19h1M181 19h1M1 20h1M181 20h1M1 21h1M181 21h1M1 22h1M181 22h1M1 23h1M181 23h1M1 24h1M181 24h1M1 25h1M181 25h1M1 26h1M181 26h1M1 27h1M181 27h1M1 28h1M181 28h1M1 29h1M181 29h1M1 30h1M181 30h1M1 31h1M181 31h1M1 32h1M181 32h1M1 33h1M181 33h1M1 34h1M181 34h1M1 35h1M181 35h1M1 36h1M181 36h1M1 37h1M181 37h1M1 38h1M181 38h1M1 39h1M181 39h1M1 40h1M181 40h1M1 41h1M181 41h1M1 42h1M181 42h1M1 43h1M181 43h1M1 44h1M181 44h1M1 45h1M181 45h1M1 46h1M181 46h1M1 47h1M181 47h1M1 48h1M181 48h1M1 49h1M181 49h1M1 50h1M181 50h1M1 51h1M181 51h1M1 52h1M181 52h1M1 53h1M181 53h1M1 54h1M181 54h1M1 55h1M181 55h1M1 56h1M181 56h1M1 57h1M181 57h1M1 58h1M181 58h1M1 59h1M181 59h1M1 60h1M181 60h1M1 61h1M181 61h1M1 62h1M181 62h1M1 63h1M181 63h1M1 64h1M181 64h1M1 65h1M181 65h1M1 66h1M181 66h1M1 67h1M181 67h1M1 68h1M181 68h1M1 69h1M181 69h1M1 70h1M181 70h1M1 71h1M181 71h1M1 72h1M181 72h1M1 73h1M181 73h1M1 74h1M181 74h1M1 75h1M181 75h1M1 76h1M181 76h1M1 77h1M181 77h1M1 78h1M181 78h1M1 79h1M181 79h1M1 80h1M181 80h1M1 81h1M181 81h1M1 82h1M181 82h1M1 83h1M181 83h1M1 84h1M181 84h1M1 85h1M181 85h1M1 86h1M181 86h1M1 87h1M181 87h1M1 88h1M181 88h1M1 89h1M181 89h1M1 90h1M181 90h1M1 91h1M181 91h1M1 92h1M181 92h1M1 93h1M181 93h1M1 94h1M181 94h1M1 95h1M181 95h1M1 96h1M181 96h1M1 97h1M181 97h1M1 98h1M181 98h1M1 99h1M181 99h1M1 100h1M181 100h1M1 101h1M181 101h1M1 102h1M181 102h1M1 103h1M181 103h1M1 104h1M181 104h1M1 105h1M181 105h1M1 106h1M181 106h1M1 107h1M181 107h1M1 108h1M181 108h1M1 109h1M181 109h1M1 110h1M181 110h1M1 111h1M181 111h1M1 112h1M181 112h1M1 113h1M181 113h1M1 114h1M181 114h1M1 116h181" />

<!-- inner -->
<path stroke="#405f77" d="M1 2h173M2 3h1M2 4h1M2 5h1M2 6h1M2 7h1M2 8h1M2 9h1M180 9h1M2 10h1M180 10h1M2 11h1M180 11h1M2 12h1M180 12h1M2 13h1M180 13h1M2 14h1M180 14h1M2 15h1M180 15h1M2 16h1M180 16h1M2 17h1M180 17h1M2 18h1M180 18h1M2 19h1M180 19h1M2 20h1M180 20h1M2 21h1M180 21h1M2 22h1M180 22h1M2 23h1M180 23h1M2 24h1M180 24h1M2 25h1M180 25h1M2 26h1M180 26h1M2 27h1M180 27h1M2 28h1M180 28h1M2 29h1M180 29h1M2 30h1M180 30h1M2 31h1M180 31h1M2 32h1M180 32h1M2 33h1M180 33h1M2 34h1M180 34h1M2 35h1M180 35h1M2 36h1M180 36h1M2 37h1M180 37h1M2 38h1M180 38h1M2 39h1M180 39h1M2 40h1M180 40h1M2 41h1M180 41h1M2 42h1M180 42h1M2 43h1M180 43h1M2 44h1M180 44h1M2 45h1M180 45h1M2 46h1M180 46h1M2 47h1M180 47h1M2 48h1M180 48h1M2 49h1M180 49h1M2 50h1M180 50h1M2 51h1M180 51h1M2 52h1M180 52h1M2 53h1M180 53h1M2 54h1M180 54h1M2 55h1M180 55h1M2 56h1M180 56h1M2 57h1M180 57h1M2 58h1M180 58h1M2 59h1M180 59h1M2 60h1M180 60h1M2 61h1M180 61h1M2 62h1M180 62h1M2 63h1M180 63h1M2 64h1M180 64h1M2 65h1M180 65h1M2 66h1M180 66h1M2 67h1M180 67h1M2 68h1M180 68h1M2 69h1M180 69h1M2 70h1M180 70h1M2 71h1M180 71h1M2 72h1M180 72h1M2 73h1M180 73h1M2 74h1M180 74h1M2 75h1M180 75h1M2 76h1M180 76h1M2 77h1M180 77h1M2 78h1M180 78h1M2 79h1M180 79h1M2 80h1M180 80h1M2 81h1M180 81h1M2 82h1M180 82h1M2 83h1M180 83h1M2 84h1M180 84h1M2 85h1M180 85h1M2 86h1M180 86h1M2 87h1M180 87h1M2 88h1M180 88h1M2 89h1M180 89h1M2 90h1M180 90h1M2 91h1M180 91h1M2 92h1M180 92h1M2 93h1M180 93h1M2 94h1M180 94h1M2 95h1M180 95h1M2 96h1M180 96h1M2 97h1M180 97h1M2 98h1M180 98h1M2 99h1M180 99h1M2 100h1M180 100h1M2 101h1M180 101h1M2 102h1M180 102h1M2 103h1M180 103h1M2 104h1M180 104h1M2 105h1M180 105h1M2 106h1M180 106h1M2 107h1M180 107h1M2 108h1M180 108h1M2 109h1M180 109h1M2 110h1M180 110h1M2 111h1M180 111h1M2 112h1M180 112h1M2 113h1M180 113h1M2 114h1M180 114h1M1 115h181" />




<!-- fill -->
<path stroke="#cedfdc" d="M3 3h171M3 4h171M3 5h171M3 6h171M3 7h171M3 8h172M3 9h177M3 10h177M3 11h177M3 12h177M3 13h177M3 14h177M3 15h177M3 16h177M3 17h177M3 18h177M3 19h177M3 20h177M3 21h177M3 22h177M3 23h177M3 24h177M3 25h177M3 26h177M3 27h177M3 28h177M3 29h177M3 30h177M3 31h177M3 32h177M3 33h177M3 34h177M3 35h177M3 36h177M3 37h177M3 38h177M3 39h177M3 40h177M3 41h177M3 42h177M3 43h177M3 44h177M3 45h177M3 46h177M3 47h177M3 48h177M3 49h177M3 50h177M3 51h177M3 52h177M3 53h177M3 54h177M3 55h177M3 56h177M3 57h177M3 58h177M3 59h177M3 60h177M3 61h177M3 62h177M3 63h177M3 64h177M3 65h177M3 66h177M3 67h177M3 68h177M3 69h177M3 70h177M3 71h177M3 72h177M3 73h177M3 74h177M3 75h177M3 76h177M3 77h177M3 78h177M3 79h177M3 80h177M3 81h177M3 82h177M3 83h177M3 84h177M3 85h177M3 86h177M3 87h177M3 88h177M3 89h177M3 90h177M3 91h177M3 92h177M3 93h177M3 94h177M3 95h177M3 96h177M3 97h177M3 98h177M3 99h177M3 100h177M3 101h177M3 102h177M3 103h177M3 104h177M3 105h177M3 106h177M3 107h177M3 108h177M3 109h177M3 110h177M3 111h177M3 112h177M3 113h177M3 114h169M173 114h7" />

<!-- x -->
<!-- x black -->
<path stroke="#383838" d="M175 0h7M174 1h1M182 1h1M174 2h1M176 2h1M180 2h1M182 2h1M174 3h1M177 3h1M179 3h1M182 3h1M174 4h1M178 4h1M182 4h1M174 5h1M177 5h1M179 5h1M182 5h1M174 6h1M176 6h1M180 6h1M182 6h1M174 7h1M182 7h1M175 8h7" />
<!-- x main fill -->
<path stroke="#c0a5c5" d="M175 1h3M175 2h1M177 2h3M175 3h2M178 3h1M180 3h1M176 4h1M179 4h2M176 5h1M180 5h2M177 6h3M181 6h1M180 7h2" />
<!-- x shadow -->
<path stroke="#bd7674" d="M175 4h1M177 4h1M175 5h1M178 5h1M175 6h1M175 7h5" />
<!-- x highlight -->
<path stroke="#eb9993" d="M178 1h4M181 2h1M181 3h1M181 4h1" />

<path stroke="#c4b9e1" d="M172 114h1" />
</svg>
